src/components/Garden/Stake/assets/wallet-dark.svg

<svg width="48" height="49" viewBox="0 0 48 49" fill="none" xmlns="http://www.w3.org/2000/svg">
<path d="M34.5 23.6148V21.472C34.5 20.6829 33.8284 20.0434 33 20.0434H16.5C15.6727 20.0434 15 19.4027 15 18.6148C15 17.827 15.6727 17.1862 16.5 17.1862H33C33.8284 17.1862 34.5 16.5466 34.5 15.7577C34.5 14.9687 33.8284 14.3291 33 14.3291H16.5C14.0185 14.3291 12 16.2516 12 18.6148V20.0434V31.472C12 33.0499 13.3432 34.3291 15 34.3291H33C33.8284 34.3291 34.5 33.6895 34.5 32.9005V30.7577C35.3284 30.7577 36 30.1181 36 29.3291V25.0434C36 24.2544 35.3284 23.6148 34.5 23.6148ZM32.25 28.6148C31.4216 28.6148 30.75 27.9753 30.75 27.1862C30.75 26.3972 31.4216 25.7577 32.25 25.7577C33.0784 25.7577 33.75 26.3972 33.75 27.1862C33.75 27.9753 33.0784 28.6148 32.25 28.6148Z" fill="url(#paint0_linear_63_5353)"/>
<circle opacity="0.3" cx="24" cy="24.46" r="24" fill="#CBF3EF"/>
<path d="M34.5 23.6145V21.4717C34.5 20.6826 33.8284 20.0431 33 20.0431H16.5C15.6727 20.0431 15 19.4024 15 18.6145C15 17.8267 15.6727 17.1859 16.5 17.1859H33C33.8284 17.1859 34.5 16.5463 34.5 15.7574C34.5 14.9684 33.8284 14.3288 33 14.3288H16.5C14.0185 14.3288 12 16.2513 12 18.6145V20.0431V31.4717C12 33.0496 13.3432 34.3288 15 34.3288H33C33.8284 34.3288 34.5 33.6892 34.5 32.9002V30.7574C35.3284 30.7574 36 30.1178 36 29.3288V25.0431C36 24.2541 35.3284 23.6145 34.5 23.6145ZM32.25 28.6145C31.4216 28.6145 30.75 27.975 30.75 27.1859C30.75 26.3969 31.4216 25.7574 32.25 25.7574C33.0784 25.7574 33.75 26.3969 33.75 27.1859C33.75 27.975 33.0784 28.6145 32.25 28.6145Z" fill="url(#paint1_linear_63_5353)"/>
<defs>
<linearGradient id="paint0_linear_63_5353" x1="24" y1="14.3291" x2="-24.7734" y2="72.4248" gradientUnits="userSpaceOnUse">
<stop stop-color="white"/>
<stop offset="1" stop-color="white" stop-opacity="0"/>
</linearGradient>
<linearGradient id="paint1_linear_63_5353" x1="25.2887" y1="-20.2533" x2="7.16207" y2="26.6427" gradientUnits="userSpaceOnUse">
<stop stop-color="#B0ECE6"/>
<stop offset="1" stop-color="#7CE0D6"/>
</linearGradient>
</defs>
</svg>

<svg width="48" height="49" fill="none" xmlns="http://www.w3.org/2000/svg"><path d="M34.5 23.615v-2.143c0-.79-.672-1.429-1.5-1.429H16.5c-.827 0-1.5-.64-1.5-1.428 0-.788.673-1.429 1.5-1.429H33c.828 0 1.5-.64 1.5-1.428 0-.79-.672-1.429-1.5-1.429H16.5c-2.482 0-4.5 1.923-4.5 4.286v12.857c0 1.578 1.343 2.857 3 2.857h18c.828 0 1.5-.64 1.5-1.428v-2.143c.828 0 1.5-.64 1.5-1.429v-4.286c0-.789-.672-1.428-1.5-1.428zm-2.25 5c-.828 0-1.5-.64-1.5-1.429s.672-1.428 1.5-1.428 1.5.64 1.5 1.428c0 .79-.672 1.429-1.5 1.429z" fill="url(#a)"/><circle opacity=".3" cx="24" cy="24.46" r="24" fill="#CBF3EF"/><path d="M34.5 23.614v-2.142c0-.79-.672-1.429-1.5-1.429H16.5c-.827 0-1.5-.64-1.5-1.428 0-.788.673-1.43 1.5-1.43H33c.828 0 1.5-.639 1.5-1.428 0-.789-.672-1.428-1.5-1.428H16.5c-2.482 0-4.5 1.922-4.5 4.285v12.858c0 1.578 1.343 2.857 3 2.857h18c.828 0 1.5-.64 1.5-1.429v-2.143c.828 0 1.5-.64 1.5-1.428v-4.286c0-.789-.672-1.428-1.5-1.428zm-2.25 5c-.828 0-1.5-.639-1.5-1.428 0-.79.672-1.429 1.5-1.429s1.5.64 1.5 1.429-.672 1.428-1.5 1.428z" fill="url(#b)"/><defs><linearGradient id="a" x1="24" y1="14.329" x2="-24.773" y2="72.425" gradientUnits="userSpaceOnUse"><stop stop-color="#fff"/><stop offset="1" stop-color="#fff" stop-opacity="0"/></linearGradient><linearGradient id="b" x1="25.289" y1="-20.253" x2="7.162" y2="26.643" gradientUnits="userSpaceOnUse"><stop stop-color="#B0ECE6"/><stop offset="1" stop-color="#7CE0D6"/></linearGradient></defs></svg>
